svg/social_distance_2_meters.svg

<svg xmlns="http://www.w3.org/2000/svg" viewBox="0 0 24 24"><path d="M6 6c1.1 0 2-.9 2-2s-.9-2-2-2-2 .9-2 2 .9 2 2 2m4 3.43c0-.81-.5-1.53-1.22-1.85C7.93 7.21 7 7 6 7s-1.93.21-2.78.58C2.5 7.9 2 8.62 2 9.43V10h8zM18 6c1.1 0 2-.9 2-2s-.9-2-2-2-2 .9-2 2 .9 2 2 2m4 3.43c0-.81-.5-1.53-1.22-1.85C19.93 7.21 19 7 18 7s-1.93.21-2.78.58C14.5 7.9 14 8.62 14 9.43V10h8zM19 17v-2H5v2l-3-3 3-3v2h14v-2l3 3zM9 20.5v.5h2v1H8v-1.5c0-.55.45-1 1-1h1V19H8v-1h2c.55 0 1 .45 1 1v.5c0 .55-.45 1-1 1zm7-1.5v3h-1v-3h-.5v2h-1v-2H13v3h-1v-3c0-.55.45-1 1-1h2c.55 0 1 .45 1 1"/></svg>

<?xml version="1.0" encoding="UTF-8"?><!DOCTYPE svg PUBLIC "-//W3C//DTD SVG 1.1//EN" "http://www.w3.org/Graphics/SVG/1.1/DTD/svg11.dtd"><svg xmlns="http://www.w3.org/2000/svg" xmlns:xlink="http://www.w3.org/1999/xlink" version="1.1" id="mdi-social-distance-2-meters" width="24" height="24" viewBox="0 0 24 24"><path d="M6 6C7.1 6 8 5.1 8 4S7.1 2 6 2 4 2.9 4 4 4.9 6 6 6M10 9.43C10 8.62 9.5 7.9 8.78 7.58C7.93 7.21 7 7 6 7S4.07 7.21 3.22 7.58C2.5 7.9 2 8.62 2 9.43V10H10V9.43M18 6C19.1 6 20 5.1 20 4S19.1 2 18 2 16 2.9 16 4 16.9 6 18 6M22 9.43C22 8.62 21.5 7.9 20.78 7.58C19.93 7.21 19 7 18 7S16.07 7.21 15.22 7.58C14.5 7.9 14 8.62 14 9.43V10H22V9.43M19 17V15L5 15V17L2 14L5 11V13L19 13V11L22 14L19 17M9 20.5V21H11V22H8V20.5C8 19.95 8.45 19.5 9 19.5H10V19H8V18H10C10.55 18 11 18.45 11 19V19.5C11 20.05 10.55 20.5 10 20.5H9M16 19V22H15V19H14.5V21H13.5V19H13V22H12V19C12 18.45 12.45 18 13 18H15C15.55 18 16 18.45 16 19Z" /></svg>
